Assets/symbols/common/mini_profile/unfriend.svg

<svg xmlns="http://www.w3.org/2000/svg" width="411.066" height="457.507" viewBox="0 0 411.066 457.507"><title>Capa 1</title><path d="M176.45,242.677A121.339,121.339,0,1,0,55.159,121.406,121.344,121.344,0,0,0,176.45,242.677Z" fill="#666"/><path d="M329.785,275.974A209.55,209.55,0,0,0,305,235.286c-5.546-7.057-15.663-14.8-25.445-20.109a137.71,137.71,0,0,1-206.14.066C63.852,220.675,54,228.421,48.638,235.458,31.234,258.169,4.373,302.186.089,361.5c-.9,12.518,5.059,31.633,15.52,38.929,19.852,13.9,62.672,31.671,151.833,31.671a590.243,590.243,0,0,0,78.862-4.867,100.12,100.12,0,0,1,83.481-151.261Z" fill="#666"/><path d="M329.785,294.946a81.281,81.281,0,1,0,81.281,81.281A81.286,81.286,0,0,0,329.785,294.946Zm40.124,96.237H338.554l-18.819.01-31.354-.01a9.4,9.4,0,1,1,0-18.8H369.9a9.4,9.4,0,1,1,.009,18.8Z" fill="#7f1100"/></svg>

<svg xmlns="http://www.w3.org/2000/svg" width="411.066" height="457.507" viewBox="0 0 411.066 457.507">
<path d="M 176.45 242.677 A 121.339 121.339 0 1 0 55.159 121.406 A 121.344 121.344 0 0 0 176.45 242.677 Z" fill="#666"/>
<path d="M 329.785 275.974 A 209.55 209.55 0 0 0 305 235.286 C 299.454 228.229 289.337 220.486 279.555 215.177 A 137.71 137.71 0 0 1 73.415 215.243 C 63.852 220.675 54 228.421 48.638 235.458 C 31.234 258.169 4.373 302.186 0.089 361.5 C -0.811 374.018 5.148 393.133 15.609 400.429 C 35.461 414.329 78.281 432.1 167.442 432.1 A 590.243 590.243 0 0 0 246.304 427.233 A 100.12 100.12 0 0 1 329.785 275.972 Z" fill="#666"/>
<path d="M 329.785 294.946 A 81.281 81.281 0 1 0 411.066 376.227 A 81.286 81.286 0 0 0 329.785 294.946 Z M 369.909 391.183 H 338.554 L 319.735 391.193 L 288.381 391.183 A 9.4 9.4 0 1 1 288.381 372.383 H 369.9 A 9.4 9.4 0 1 1 369.909 391.183 Z" fill="#7f1100"/>
</svg>
